lib/svgs/lock.svg

<svg xmlns="http://www.w3.org/2000/svg" viewBox="0 0 20 20">
    <path fill="#000" fill-rule="evenodd" d="M14.718,8.704 L14.718,6.371 C14.718,3.961 12.757,2 10.347,2 C7.937,2 5.976,3.961 5.976,6.371 L5.976,8.704 C4.887,8.717 4,9.61 4,10.702 L4,16 C4,17.1 4.9,18 6,18 L14.695,18 C15.795,18 16.695,17.1 16.695,16 L16.695,10.702 C16.695,9.609 15.807,8.717 14.718,8.704 L14.718,8.704 Z M15.495,16 C15.495,16.434 15.129,16.8 14.695,16.8 L6,16.8 C5.566,16.8 5.2,16.434 5.2,16 L5.2,10.702 C5.2,10.268 5.566,9.902 6,9.902 L14.695,9.902 C15.129,9.902 15.495,10.268 15.495,10.702 L15.495,16 L15.495,16 Z M10.347,3.2 C12.095,3.2 13.518,4.623 13.518,6.371 L13.518,8.702 L7.177,8.702 L7.177,6.371 C7.177,4.623 8.599,3.2 10.347,3.2 L10.347,3.2 Z M10.3473,12.2552 C9.6853,12.2552 9.1483,12.7922 9.1483,13.4542 C9.1483,14.1162 9.6853,14.6532 10.3473,14.6532 C11.0093,14.6532 11.5463,14.1162 11.5463,13.4542 C11.5463,12.7922 11.0093,12.2552 10.3473,12.2552 L10.3473,12.2552 Z"/>
</svg>

<svg xmlns="http://www.w3.org/2000/svg" viewBox="0 0 20 20">
    <path fill="#000" fill-rule="evenodd" d="M14.718 8.704V6.371A4.376 4.376 0 0 0 10.347 2a4.376 4.376 0 0 0-4.371 4.371v2.333A2.004 2.004 0 0 0 4 10.702V16c0 1.1.9 2 2 2h8.695c1.1 0 2-.9 2-2v-5.298a2.005 2.005 0 0 0-1.977-1.998M15.495 16a.81.81 0 0 1-.8.8H6a.81.81 0 0 1-.8-.8v-5.298c0-.434.366-.8.8-.8h8.695c.434 0 .8.366.8.8V16M10.347 3.2a3.175 3.175 0 0 1 3.171 3.171v2.331H7.177V6.371a3.174 3.174 0 0 1 3.17-3.171m0 9.055a1.2 1.2 0 1 0 0 2.399 1.2 1.2 0 0 0 0-2.399"/>
</svg>
